app/assets/images/play-video.svg

<svg xmlns="http://www.w3.org/2000/svg" viewBox="0 0 103 103" enable-background="new 0 0 103 103"><g fill="#110F0F"><path fill="#FFF" d="M51.5 0c-28.397 0-51.5 23.103-51.5 51.5s23.103 51.5 51.5 51.5 51.5-23.103 51.5-51.5-23.103-51.5-51.5-51.5zm0 100c-26.743 0-48.5-21.757-48.5-48.5s21.757-48.5 48.5-48.5 48.5 21.757 48.5 48.5-21.757 48.5-48.5 48.5zM40.141 67.802l28.237-16.302-28.237-16.302z"/></g></svg>

<?xml version="1.0" encoding="utf-8"?>
<!-- Generator: Adobe Illustrator 18.1.0, SVG Export Plug-In . SVG Version: 6.00 Build 0)  -->
<!DOCTYPE svg PUBLIC "-//W3C//DTD SVG 1.1//EN" "http://www.w3.org/Graphics/SVG/1.1/DTD/svg11.dtd">
<svg version="1.1" id="Layer_1" xmlns="http://www.w3.org/2000/svg" xmlns:xlink="http://www.w3.org/1999/xlink" x="0px" y="0px"
	 viewBox="0 0 103 103" enable-background="new 0 0 103 103" xml:space="preserve">
<g>
	<path fill="#110F0F" d="M51.5,0C23.103,0,0,23.103,0,51.5C0,79.897,23.103,103,51.5,103S103,79.897,103,51.5
		C103,23.103,79.897,0,51.5,0z M51.5,100C24.757,100,3,78.243,3,51.5S24.757,3,51.5,3C78.243,3,100,24.757,100,51.5
		S78.243,100,51.5,100z"/>
	<polygon fill="#110F0F" points="40.141,67.802 68.378,51.5 40.141,35.198 	"/>
</g>
</svg>
